X:1
T:RVW2/1/126 We a Prisoner Have Got
T:RVW2/1/126 We a Prisoner Have Got
T:Children's Games, Weobley [3 of 3]
T:Transcribed by Simon Furey and Lewis Jones
C:Transcribed by Simon Furey and Lewis Jones
L:1/8
Q:1/4=100
M:2/4
K:D
V:1 treble 
V:1
"^(Editorialsuggestion)" A>AAA | Ac A2 | GF E2 | FE D2 | A>AAA | Ad A2 | GFEG | (FE) D2 |] %8

